src/pos-icons/terraform.svg

<svg height="24" viewBox="0 0 24 24" width="24" xmlns="http://www.w3.org/2000/svg"><path d="m21 5.4v6.4l-5.6 3.2v-6.3zm-6.2 3.3v6.3l-5.6-3.2v-6.4zm0 7v6.4l-5.6-3.2v-6.4zm-6.2-10.6v6.4l-5.6-3.2v-6.4z"/></svg>

<?xml version="1.0" encoding="UTF-8"?><!DOCTYPE svg PUBLIC "-//W3C//DTD SVG 1.1//EN" "http://www.w3.org/Graphics/SVG/1.1/DTD/svg11.dtd"><svg xmlns="http://www.w3.org/2000/svg" xmlns:xlink="http://www.w3.org/1999/xlink" version="1.1" id="mdi-terraform" width="24" height="24" viewBox="0 0 24 24"><path d="M21 5.4V11.8L15.4 15V8.7L21 5.4M14.8 8.7V15L9.2 11.8V5.4L14.8 8.7M14.8 15.7V22.1L9.2 18.9V12.5L14.8 15.7M8.6 5.1V11.5L3 8.3V1.9L8.6 5.1Z" /></svg>
